X: 30
T: Out On The Ocean
B: begged borrowed and stolen
M:6/8
L:1/8
R: jig
Q: 3/8=100
K:Gmajor
V:1 
GE|:"G"D2B BAG|BdB A2B|"C"GED G2A|"D"B2B AGE|
 "G"D2B BAG|BdB A2B|"C"GED G2A|"D"BGE "G"G:|
 |:Bd|"Em"e2e edB|ege edB|"Bm7"d2B def|"C"gfe dBA|
 "G"G2A B2d|"C"ege dBA|"G"GED G2A|"D"BGE "G"G:|
% abcbook-tune_id 62828a3a105505e9746ddfc8


% abcbook-boost 0
% abcbook-tablature 
% abcbook-transpose 
% abcbook-lastupdated 1652725431062
% abcbook-soundfonts 
% abcbook-repeats 3
% abc-sessionorg_id 108
% abc-sessionorg_setting 0
% abc-sessionorg_setting_id 20578
% abc-boost 0

